Suru++-Ubuntu/actions/symbolic/edit-flag-symbolic.svg

<svg width="16" height="16" style="enable-background:new" version="1.1" xmlns="http://www.w3.org/2000/svg">
 <title>Paper Symbolic Icon Theme</title>
 <g transform="translate(-305.0004,-141)">
  <path transform="translate(305.0004,141)" d="m2 0v7 9h1v-9h4l1 2h6v-7h-4l-1-2h-5-2zm1 1h5l1 2h4v5h-4l-1-2h-5v-5z" style="fill:#808080"/>
 </g>
</svg>

<?xml version="1.0" encoding="UTF-8" standalone="no"?>
<svg
   xmlns:dc="http://purl.org/dc/elements/1.1/"
   xmlns:cc="http://creativecommons.org/ns#"
   xmlns:rdf="http://www.w3.org/1999/02/22-rdf-syntax-ns#"
   xmlns:svg="http://www.w3.org/2000/svg"
   xmlns="http://www.w3.org/2000/svg"
   xmlns:sodipodi="http://sodipodi.sourceforge.net/DTD/sodipodi-0.dtd"
   xmlns:inkscape="http://www.inkscape.org/namespaces/inkscape"
   height="16"
   style="enable-background:new"
   version="1.1"
   width="16"
   id="svg8"
   sodipodi:docname="mail-flag-symbolic.svg"
   inkscape:version="0.92.2 (unknown)">
  <metadata
     id="metadata14">
    <rdf:RDF>
      <cc:Work
         rdf:about="">
        <dc:format>image/svg+xml</dc:format>
        <dc:type
           rdf:resource="http://purl.org/dc/dcmitype/StillImage" />
      </cc:Work>
    </rdf:RDF>
  </metadata>
  <defs
     id="defs12" />
  <sodipodi:namedview
     pagecolor="#ffffff"
     bordercolor="#666666"
     borderopacity="1"
     objecttolerance="10"
     gridtolerance="10"
     guidetolerance="10"
     inkscape:pageopacity="0"
     inkscape:pageshadow="2"
     inkscape:window-width="1920"
     inkscape:window-height="1013"
     id="namedview10"
     showgrid="true"
     inkscape:zoom="51.875"
     inkscape:cx="8"
     inkscape:cy="11.084337"
     inkscape:window-x="0"
     inkscape:window-y="34"
     inkscape:window-maximized="1"
     inkscape:current-layer="g6">
    <inkscape:grid
       type="xygrid"
       id="grid824" />
  </sodipodi:namedview>
  <title
     id="title2">
  Paper Symbolic Icon Theme
 </title>
  <g
     transform="translate(-305.0004,-141)"
     id="g6">
    <g
       id="g822">
      <path
         style="opacity:1;fill:#808080;fill-opacity:1"
         d="M 2 0 L 2 7 L 2 16 L 3 16 L 3 7 L 7 7 L 8 9 L 14 9 L 14 2 L 10 2 L 9 0 L 4 0 L 2 0 z M 3 1 L 8 1 L 9 3 L 13 3 L 13 8 L 9 8 L 8 6 L 3 6 L 3 1 z "
         transform="translate(305.0004,141)"
         id="path4" />
    </g>
  </g>
</svg>
